X: 43292
T: Woodcroft Lane
R: reel
M: 4/4
K: Gmajor
E/F/||G3 E A3 F|G2 Ad B2 ef|ge fd e2 ge|dB AG A2 EF|
G2 E2 A3 F|G2 Ad B2 ef|ge fd e2 ge|dB A> G G2 DE|
|:GB AG G2 GB|dg fd e3 f|ge fd e2 dB|cA B<G E2 D>E|
GB AG G2 GB|dg fd e3 f|ga fg e2 dB|1 AG BA G2 DE:|2 AG BA G3 z||

